images/pages/set_currency/gbp.svg

<?xml version="1.0" encoding="UTF-8"?>
<svg width="28px" height="20px" viewBox="0 0 28 20" version="1.1" xmlns="http://www.w3.org/2000/svg" xmlns:xlink="http://www.w3.org/1999/xlink">
    <!-- Generator: Sketch 44.1 (41455) - http://www.bohemiancoding.com/sketch -->
    <title>currency/ic-gbp</title>
    <desc>Created with Sketch.</desc>
    <defs>
        <rect id="path-1" x="0" y="0" width="28" height="20" rx="2"></rect>
    </defs>
    <g id="Flows-to-create-CR" stroke="none" stroke-width="1" fill="none" fill-rule="evenodd">
        <g id="4-Choose-Currency-(Combine-Version)" transform="translate(-805.000000, -431.000000)">
            <g id="Group-10" transform="translate(305.000000, 138.000000)">
                <g id="Group-8" transform="translate(97.000000, 241.000000)">
                    <g id="Group-6-Copy" transform="translate(0.000000, 37.000000)">
                        <g id="Group-16-Copy">
                            <g id="Group-4">
                                <g id="Group">
                                    <g id="Group-14" transform="translate(357.000000, 0.000000)">
                                        <g id="currency/ic-gbp" transform="translate(46.000000, 15.000000)">
                                            <mask id="mask-2" fill="white">
                                                <use xlink:href="#path-1"></use>
                                            </mask>
                                            <use id="Mask" fill="#FFFFFF" xlink:href="#path-1"></use>
                                            <rect id="Mask-Copy" fill="#0A17A7" mask="url(#mask-2)" x="0" y="0" width="28" height="20"></rect>
                                            <path d="M6.67374124,13.3333333 L4.4408921e-16,13.3333333 L4.4408921e-16,6.66666667 L6.67374124,6.66666667 L-2.77365027,0.29432063 L-1.2824692,-1.91644623 L10.6666667,6.14334768 L10.6666667,-1.33333333 L17.3333333,-1.33333333 L17.3333333,6.14334768 L29.2824692,-1.91644623 L30.7736503,0.29432063 L21.3262588,6.66666667 L28,6.66666667 L28,13.3333333 L21.3262588,13.3333333 L30.7736503,19.7056794 L29.2824692,21.9164462 L17.3333333,13.8566523 L17.3333333,21.3333333 L10.6666667,21.3333333 L10.6666667,13.8566523 L-1.2824692,21.9164462 L-2.77365027,19.7056794 L6.67374124,13.3333333 Z" id="Rectangle-2" fill="#FFFFFF" mask="url(#mask-2)"></path>
                                            <path d="M18.6679688,6.33219401 L31.3333333,-2" id="Line" stroke="#DB1F35" stroke-width="0.666666667" stroke-linecap="round" mask="url(#mask-2)"></path>
                                            <path d="M20.0127767,21.3503418 L31.3666178,13.6975098" id="Line-Copy-2" stroke="#DB1F35" stroke-width="0.666666667" stroke-linecap="round" mask="url(#mask-2)" transform="translate(25.689697, 17.523926) scale(1, -1) translate(-25.689697, -17.523926) "></path>
                                            <path d="M8.00553385,6.31046549 L-3.83748372,-1.67097982" id="Line-Copy" stroke="#DB1F35" stroke-width="0.666666667" stroke-linecap="round" mask="url(#mask-2)"></path>
                                            <path d="M9.29003906,22.3104655 L-3.83748372,13.6048991" id="Line-Copy-3" stroke="#DB1F35" stroke-width="0.666666667" stroke-linecap="round" mask="url(#mask-2)" transform="translate(2.726278, 17.957682) scale(1, -1) translate(-2.726278, -17.957682) "></path>
                                            <polygon id="Rectangle-2-Copy-3" fill="#E6273E" mask="url(#mask-2)" points="0 12 12 12 12 20 16 20 16 12 28 12 28 8 16 8 16 0 12 0 12 8 0 8"></polygon>
                                        </g>
                                    </g>
                                </g>
                            </g>
                        </g>
                    </g>
                </g>
            </g>
        </g>
    </g>
</svg>

<svg width="28" height="20" viewBox="0 0 28 20" xmlns="http://www.w3.org/2000/svg" xmlns:xlink="http://www.w3.org/1999/xlink"><title>currency/ic-gbp</title><defs><rect id="a" width="28" height="20" rx="2"/></defs><g fill="none" fill-rule="evenodd"><mask id="b" fill="#fff"><use xlink:href="#a"/></mask><use fill="#FFF" xlink:href="#a"/><path fill="#0A17A7" mask="url(#b)" d="M0 0h28v20H0z"/><path d="M6.674 13.333H0V6.667h6.674L-2.774.294l1.492-2.21 11.949 8.06v-7.477h6.666v7.476l11.95-8.06 1.49 2.211-9.447 6.373H28v6.666h-6.674l9.448 6.373-1.492 2.21-11.949-8.06v7.477h-6.666v-7.476l-11.95 8.06-1.49-2.211 9.447-6.373z" fill="#FFF" mask="url(#b)"/><path d="M18.668 6.332L31.333-2" stroke="#DB1F35" stroke-width=".667" stroke-linecap="round" mask="url(#b)"/><path d="M20.013 21.35l11.354-7.652" stroke="#DB1F35" stroke-width=".667" stroke-linecap="round" mask="url(#b)" transform="matrix(1 0 0 -1 0 35.048)"/><path d="M8.006 6.31L-3.837-1.67" stroke="#DB1F35" stroke-width=".667" stroke-linecap="round" mask="url(#b)"/><path d="M9.29 22.31l-13.127-8.705" stroke="#DB1F35" stroke-width=".667" stroke-linecap="round" mask="url(#b)" transform="matrix(1 0 0 -1 0 35.915)"/><path fill="#E6273E" mask="url(#b)" d="M0 12h12v8h4v-8h12V8H16V0h-4v8H0z"/></g></svg>
